symbols/web/receipt/materialsymbolsoutlined/receipt_wght500grad200fill1_24px.svg

<svg xmlns="http://www.w3.org/2000/svg" height="24" width="24"><path d="M2.125 23V1.075l1.7 1.725 1.6-1.725 1.675 1.7 1.625-1.7 1.65 1.7L12 1.075l1.625 1.7 1.65-1.7 1.625 1.7 1.675-1.7 1.625 1.7 1.675-1.7V23L20.2 21.3 18.575 23 16.9 21.3 15.275 23l-1.65-1.7L12 23l-1.625-1.7-1.65 1.7L7.1 21.3 5.425 23 3.8 21.3ZM5.7 17.7h12.575v-2.65H5.7Zm0-4.35h12.575V10.7H5.7ZM5.7 9h12.575V6.35H5.7Z"/></svg>

<svg xmlns="http://www.w3.org/2000/svg" height="24" width="24"><path d="M2.125 23V1.075L3.825 2.8L5.425 1.075L7.1 2.775L8.725 1.075L10.375 2.775L12 1.075L13.625 2.775L15.275 1.075L16.9 2.775L18.575 1.075L20.2 2.775L21.875 1.075V23L20.2 21.3L18.575 23L16.9 21.3L15.275 23L13.625 21.3L12 23L10.375 21.3L8.725 23L7.1 21.3L5.425 23L3.8 21.3ZM5.7 17.7H18.275V15.05H5.7ZM5.7 13.35H18.275V10.7H5.7ZM5.7 9H18.275V6.35H5.7Z"/></svg>
